X:1
T:Title
%%score { ( 1 3 ) | ( 2 4 ) }
L:1/8
M:9/8
K:F
V:1 treble nm="Grand Piano"
V:3 treble 
V:2 bass 
V:4 bass 
V:1
 z3 z3[Q:1/4=100] CDE | F3 A3 A_A=A | c3 E3 CBB | B3 D3 EDC | c6 A_A=A | c3 A3 [FA][FB][Fc] | %6
 [Fd]3 [DFB]3 [DFB][DFB][Fd] |[M:19/16] [Fc]/-[Fc]/-[Fc]-<[Fc]C/-C/-C-<C[FA][EA]3/2G |[M:3/4] F6 | %9
[M:3/8] cdc |[M:9/8] [Ec]3 [EB]3 [EB][Ec][GB] | [GB]3 A3 AA[GA] | [Fd]3 [Fd]2 [Af] eed | %13
 z3 B,3 c=Bd | c3 A3 A[CGB][FAc] | [FBd]3 [Ff]3 [Ff][Fe][Fd] | %16
[M:19/16] [Fc]/-[Fc]/-[Fc]-<[Fc]C/-C/-C-<C[FA][EA]3/2G |[M:3/4] F6 |] %18
V:2
 z3 z3 C,D,E, | F,3 [F,CF]3 [F,CF][F,=B,F][F,CF] | [G,B,E]3 [G,B,C]3 [C,B,][C,G,C][C,G,C] | %3
 [C,G,C]3 [C,B,C]3 [C,B,C][E,B,C][G,B,] | [F,A,F]6 [F,CF][F,=B,F][F,CF] | %5
 [F,A,F]3 [F,CF]3 [_E,C][D,B,][C,A,] | [B,,B,]3 B,,3 B,,B,,[B,,B,] | %7
[M:19/16] [C,A,]/-[C,A,]/-[C,A,]-<[C,A,][C,A,]/-[C,A,]/-[C,A,]-<[C,A,][C,C][C,C]3/2[C,B,C] | %8
[M:3/4] [F,A,C]6 |[M:3/8] [F,A,F][F,B,F][F,A,F] |[M:9/8] [C,G,]3 [C,G,]3 [C,G,][C,G,][C,C] | %11
 [F,C]3 [F,CF]3 [F,CF][F,CF][E,^C] | [D,D]3 [D,A,]2 [D,D][K:treble] [G,=B,G][G,B,G][G,F] | %13
 G,3 z3 [F,A,F][F,_A,F][F,B,F] | [F,A,F]3 [F,CF]3 [F,CF]F,F, | B,,3 [B,,D]3 [B,,D][B,,C][B,,B,] | %16
[M:19/16] [C,A,]/-[C,A,]/-[C,A,]-<[C,A,][C,A,]/-[C,A,]/-[C,A,]-<[C,A,][C,C][C,C]3/2[C,B,C] | %17
[M:3/4] [F,A,C]6 |] %18
V:3
 x9 | x9 | x9 | x9 | x9 | x9 | x9 |[M:19/16] x19/2 |[M:3/4] x6 |[M:3/8] x3 |[M:9/8] x9 | x9 | x9 | %13
 [Ec]6 z3 | x9 | x9 |[M:19/16] x19/2 |[M:3/4] x6 |] %18
V:4
 x9 | x9 | x9 | x9 | x9 | x9 | x9 |[M:19/16] x19/2 |[M:3/4] x6 |[M:3/8] x3 |[M:9/8] x9 | x9 | %12
 x6[K:treble] x3 | C,6 z3 | x9 | x9 |[M:19/16] x19/2 |[M:3/4] x6 |] %18

